X:1
T:Hor dite un poco
T:Hor dite un poco
T:Domenico Obizzi
T:Residuo
T:Source : Madrigali et arie a voce sola---Libro I ---Venetia---A.Vincenti---1627. Editor : Andre Vierendeels (24/02/16).
T:Notes : Original clefs : C1, F4 Figures above the BC are notated in original print Notation in original print :" Alfabeto d'ariette per la Chitarra alla Spagnola", realised by the editor Note values have been halved in 3-beat measures Dotted brackets indicate black notes     
T:©
C:Domenico Obizzi
Z:©
%%score 1 { ( 2 3 ) | 4 }
L:1/8
Q:1/4=101
M:4/4
K:C
V:1 treble nm="Soprano" snm="S"
V:2 treble nm="BC" snm="BC"
V:3 treble 
V:4 bass 
V:1
 z2 z A F2 D2 | A2 B2 c2 A2 |[M:3/4] c2 B4 | A2 G4 | A2 F2 EF | G6 | z2 E2 F2 | G2 G2 A2 | %8
w: Hor di- te,|di- te'un po- co,|v'è duol|si for-|te e ri- *|o,|cha'ag- gua-|gliar, ag- gua-|
 _B2 c2 B2 |"^b" B2 A4 |"^(-natural)" B6 | z2 D2 E2 | F2 F2 G2 | A2 G2 F2- | F2 E4 | D6 |] %16
w: gliar pos- sa'il|_ mi-|o,|ch'ag- gua-|gliar, ag- gua-|gliar pos- sa'il|_ mi-|o.|
V:2
 F8 | F4 c4 |[M:3/4] A2 B4 | c2 e4 | c2 A4 | G6 | G4 F2 | D4 F2 | G2 G2 _B2- | B2 A4 | G6 | %11
 _B4 G2 | A2 A2 G2 | F2 _B4- | B2 A2 EG | ^F6 |] %16
V:3
 D8 | F4 E4 |[M:3/4] E2 G4 | A2 G4 | E2 F4 | E6 | E4 D2 | B,4 D2 | D2 E2 G2 | G4 ^F2 | D6 | D4 E2 | %12
 A,4 C2- | C2 D4 | D2 D2 ^C2 | D6 |] %16
V:4
 D,8 | D,4 A,,4 |[M:3/4] A,2 E,4 |"^b" F,2 C,4 | C,2 D,4 | C,4 C,2 | C,4 C,2 | G,,4 G,,2 | %8
 G,,2 C,4 |"^#" C,2 D,4 | G,,4 G,,2 | G,,4 G,,2 | D,4 E,2 | F,2 G,4 | G,2 A,4 | D,6 |] %16

